X:14113
T:Reel de la Veuve
C:Joseph Allard
M:2/4
L:1/16
K:G
D2|G2Bd gdBd|cBAB cBce|dBG2 Bddg|ecAF GFEF|!
G2Bd gdBd|cBAB cBce|dBG2 Bddg|ecAF G2:|!
|:Bd|gfgb agfd|efge dBG2|Bdgb agfd|efga bggf|!
gfgb agfd|efga bgga|bgaf gfed|egfa g2:|!
